SVG_Azure_All/Managed Disk Snapshot.svg

<?xml version="1.0" encoding="UTF-8" standalone="no"?>
<!-- Generated by Microsoft Visio, SVG Export Managed Disk Snapshot.svg Page-1 -->

<svg
   xmlns:dc="http://purl.org/dc/elements/1.1/"
   xmlns:cc="http://creativecommons.org/ns#"
   xmlns:rdf="http://www.w3.org/1999/02/22-rdf-syntax-ns#"
   xmlns:svg="http://www.w3.org/2000/svg"
   xmlns="http://www.w3.org/2000/svg"
   xmlns:sodipodi="http://sodipodi.sourceforge.net/DTD/sodipodi-0.dtd"
   xmlns:inkscape="http://www.inkscape.org/namespaces/inkscape"
   width="0.74808848in"
   height="0.78748119in"
   viewBox="0 0 53.862566 56.698808"
   xml:space="preserve"
   class="st7"
   version="1.1"
   id="svg57"
   sodipodi:docname="Managed Disk Snapshot.svg"
   style="font-size:12px;overflow:visible;color-interpolation-filters:sRGB;fill:none;fill-rule:evenodd;stroke-linecap:square;stroke-miterlimit:3"
   inkscape:version="0.92.5 (2060ec1f9f, 2020-04-08)"><metadata
   id="metadata61"><rdf:RDF><cc:Work
       rdf:about=""><dc:format>image/svg+xml</dc:format><dc:type
         rdf:resource="http://purl.org/dc/dcmitype/StillImage" /></cc:Work></rdf:RDF></metadata><sodipodi:namedview
   pagecolor="#ffffff"
   bordercolor="#666666"
   borderopacity="1"
   objecttolerance="10"
   gridtolerance="10"
   guidetolerance="10"
   inkscape:pageopacity="0"
   inkscape:pageshadow="2"
   inkscape:window-width="640"
   inkscape:window-height="480"
   id="namedview59"
   showgrid="false"
   inkscape:zoom="1.4192627"
   inkscape:cx="35.906445"
   inkscape:cy="37.788092"
   inkscape:window-x="0"
   inkscape:window-y="0"
   inkscape:window-maximized="0"
   inkscape:current-layer="svg57" />
	<style
   type="text/css"
   id="style2">
	<![CDATA[
		.st1 {fill:#76bc2d;stroke:none;stroke-linecap:butt;stroke-width:34}
		.st2 {fill:#5e9624;stroke:none;stroke-linecap:butt;stroke-width:34}
		.st3 {fill:url(#grad0-10);stroke:none;stroke-linecap:butt;stroke-width:34}
		.st4 {fill:#005ba1;stroke:none;stroke-linecap:butt;stroke-width:34}
		.st5 {fill:#949494;stroke:none;stroke-linecap:butt;stroke-width:34}
		.st6 {fill:#0078d4;stroke:none;stroke-linecap:butt;stroke-width:34}
		.st7 {fill:none;fill-rule:evenodd;font-size:12px;overflow:visible;stroke-linecap:square;stroke-miterlimit:3}
	]]>
	</style>

	<defs
   id="Patterns_And_Gradients">
		<linearGradient
   id="grad0-10"
   x1="0"
   y1="169.04571"
   x2="24.319454"
   y2="169.04571"
   gradientTransform="scale(1.5504872,0.64495858)"
   gradientUnits="userSpaceOnUse">
			<stop
   offset="0"
   stop-color="#0078d4"
   stop-opacity="1"
   id="stop4" />
			<stop
   offset="0.54"
   stop-color="#358ee3"
   stop-opacity="1"
   id="stop6" />
			<stop
   offset="1"
   stop-color="#5ea0ef"
   stop-opacity="1"
   id="stop8" />
		</linearGradient>
	</defs>
	<g
   id="g55"
   transform="translate(-33.999556,-33.998855)">
		<title
   id="title12">Page-1</title>
		<g
   id="group3237-1"
   transform="translate(34.0003,-34.0157)">
			<title
   id="title14">Managed Disk Snapshot</title>
			<g
   id="group3238-2">
				<title
   id="title16">Icon-compute-26</title>
				<g
   id="shape3239-3"
   transform="translate(8.23093,-14.2047)">
					<title
   id="title18">Sheet.3239</title>
					<ellipse
   cx="18.8535"
   cy="116.87"
   rx="18.8535"
   ry="7.8425202"
   class="st1"
   id="ellipse20"
   style="fill:#76bc2d;stroke:none;stroke-width:34;stroke-linecap:butt" />
				</g>
				<g
   id="shape3240-5"
   transform="translate(21.2762,-20.378)">
					<title
   id="title23">Sheet.3240</title>
					<ellipse
   cx="6.2741499"
   cy="122.981"
   rx="6.2741499"
   ry="1.73228"
   class="st2"
   id="ellipse25"
   style="fill:#5e9624;stroke:none;stroke-width:34;stroke-linecap:butt" />
				</g>
				<g
   id="shape3241-7"
   transform="translate(8.23093,-31.622)">
					<title
   id="title28">Sheet.3241</title>
					<ellipse
   cx="18.8535"
   cy="116.87"
   rx="18.8535"
   ry="7.8425202"
   class="st3"
   id="ellipse30"
   style="fill:url(#grad0-10);stroke:none;stroke-width:34;stroke-linecap:butt" />
				</g>
				<g
   id="shape3242-11"
   transform="translate(21.2762,-37.8268)">
					<title
   id="title33">Sheet.3242</title>
					<ellipse
   cx="6.2741499"
   cy="122.981"
   rx="6.2741499"
   ry="1.73228"
   class="st4"
   id="ellipse35"
   style="fill:#005ba1;stroke:none;stroke-width:34;stroke-linecap:butt" />
				</g>
				<g
   id="shape3243-13">
					<title
   id="title38">Sheet.3243</title>
					<path
   d="M 11.18,68.02 H 1.86 A 1.80149,1.82677 -180 0 0 0,69.88 v 9.45 a 0.900744,0.913386 -180 0 0 0.900744,0.913386 L 1.93,80.24 A 0.900744,0.913386 -180 0 0 2.861804,79.326614 L 2.86,70.79 h 8.32 a 0.900744,0.913386 -180 0 0 0.931804,-0.913386 L 12.11,68.96 a 0.900744,0.913386 -180 0 0 -0.931804,-0.944882 z m 40.72,0 h -9.32 a 0.931804,0.944882 -180 0 0 -0.931804,0.944882 L 41.65,69.97 a 0.931804,0.944882 -180 0 0 0.931804,0.818898 L 50.94,70.79 v 8.51 a 0.900744,0.913386 -180 0 0 0.962864,0.944882 L 52.93,80.24 a 0.900744,0.913386 -180 0 0 0.931804,-0.913386 L 53.86,69.88 A 1.83255,1.85827 -180 0 0 51.9,68.02 Z M 11.18,121.85 H 2.86 v -8.51 A 0.900744,0.913386 -180 0 0 1.928196,112.42661 L 0.9,112.43 a 0.900744,0.913386 -180 0 0 -0.900744,0.91339 L 0,122.79 a 1.80149,1.82677 -180 0 0 1.8,1.86 h 9.32 a 0.900744,0.913386 -180 0 0 0.931804,-0.91339 L 12.05,122.73 a 0.931804,0.944882 -180 0 0 -0.869684,-0.88189 z m 41.62,-9.42 h -0.9 a 0.900744,0.913386 -180 0 0 -0.900744,0.91339 L 51,121.85 h -8.42 a 0.962864,0.976378 -180 0 0 -0.931804,0.94488 L 41.65,123.8 a 0.931804,0.944882 -180 0 0 0.931804,0.91339 L 51.9,124.71 a 1.83255,1.85827 -180 0 0 1.83,-1.86 v -9.44 a 0.900744,0.913386 -180 0 0 -0.931804,-0.97638 z"
   class="st5"
   id="path40"
   inkscape:connector-curvature="0"
   style="fill:#949494;stroke:none;stroke-width:34;stroke-linecap:butt" />
				</g>
				<g
   id="shape3244-15"
   transform="translate(8.19987,-9.82677)">
					<title
   id="title43">Sheet.3244</title>
					<path
   d="m 18.85,120.18 c 10.41,0 18.86,-3.5 18.86,-7.85 v 4.63 c -0.22,4.23 -8.64,7.75 -18.86,7.75 C 8.63,124.71 0,121.19 0,116.87 v -4.54 c 0.03,4.35 8.48,7.85 18.85,7.85 z"
   class="st2"
   id="path45"
   inkscape:connector-curvature="0"
   style="fill:#5e9624;stroke:none;stroke-width:34;stroke-linecap:butt" />
				</g>
				<g
   id="shape3245-17"
   transform="translate(8.23093,-27.4016)">
					<title
   id="title48">Sheet.3245</title>
					<path
   d="m 18.82,120.24 c 10.41,0 18.86,-3.53 18.86,-7.84 v 4.69 c -0.22,4.25 -8.64,7.62 -18.86,7.62 C 8.6,124.71 0,121.19 0,116.84 v -4.35 c 0,4.32 8.45,7.75 18.82,7.75 z"
   class="st6"
   id="path50"
   inkscape:connector-curvature="0"
   style="fill:#0078d4;stroke:none;stroke-width:34;stroke-linecap:butt" />
				</g>
			</g>
		</g>
	</g>
</svg>

<?xml version="1.0" encoding="UTF-8" standalone="no"?>
<!DOCTYPE svg PUBLIC "-//W3C//DTD SVG 1.1//EN" "http://www.w3.org/Graphics/SVG/1.1/DTD/svg11.dtd">
<!-- Generated by Microsoft Visio, SVG Export Managed Disk Snapshot.svg Page-1 -->
<svg xmlns="http://www.w3.org/2000/svg" xmlns:xlink="http://www.w3.org/1999/xlink" xmlns:ev="http://www.w3.org/2001/xml-events"
		width="1.69248in" height="1.73212in" viewBox="0 0 121.859 124.713" xml:space="preserve" color-interpolation-filters="sRGB"
		class="st7">
	<style type="text/css">
	<![CDATA[
		.st1 {fill:#76bc2d;stroke:none;stroke-linecap:butt;stroke-width:34}
		.st2 {fill:#5e9624;stroke:none;stroke-linecap:butt;stroke-width:34}
		.st3 {fill:url(#grad0-10);stroke:none;stroke-linecap:butt;stroke-width:34}
		.st4 {fill:#005ba1;stroke:none;stroke-linecap:butt;stroke-width:34}
		.st5 {fill:#949494;stroke:none;stroke-linecap:butt;stroke-width:34}
		.st6 {fill:#0078d4;stroke:none;stroke-linecap:butt;stroke-width:34}
		.st7 {fill:none;fill-rule:evenodd;font-size:12px;overflow:visible;stroke-linecap:square;stroke-miterlimit:3}
	]]>
	</style>

	<defs id="Patterns_And_Gradients">
		<linearGradient id="grad0-10" x1="0" y1="0" x2="1" y2="0" gradientTransform="rotate(-90 0.5 0.5)">
			<stop offset="0" stop-color="#0078d4" stop-opacity="1"/>
			<stop offset="0.54" stop-color="#358ee3" stop-opacity="1"/>
			<stop offset="1" stop-color="#5ea0ef" stop-opacity="1"/>
		</linearGradient>
	</defs>
	<g>
		<title>Page-1</title>
		<g id="group3185-1" transform="translate(34.0003,-34.0157)">
			<title>Managed Disk Snapshot</title>
			<g id="group3186-2">
				<title>Icon-compute-26</title>
				<g id="shape3187-3" transform="translate(8.23093,-14.2047)">
					<title>Sheet.3187</title>
					<ellipse cx="18.8535" cy="116.87" rx="18.8535" ry="7.84252" class="st1"/>
				</g>
				<g id="shape3188-5" transform="translate(21.2762,-20.378)">
					<title>Sheet.3188</title>
					<ellipse cx="6.27415" cy="122.981" rx="6.27415" ry="1.73228" class="st2"/>
				</g>
				<g id="shape3189-7" transform="translate(8.23093,-31.622)">
					<title>Sheet.3189</title>
					<ellipse cx="18.8535" cy="116.87" rx="18.8535" ry="7.84252" class="st3"/>
				</g>
				<g id="shape3190-11" transform="translate(21.2762,-37.8268)">
					<title>Sheet.3190</title>
					<ellipse cx="6.27415" cy="122.981" rx="6.27415" ry="1.73228" class="st4"/>
				</g>
				<g id="shape3191-13">
					<title>Sheet.3191</title>
					<path d="M11.18 68.02 L1.86 68.02 A1.80149 1.82677 -180 0 0 0 69.88 L0 79.33 a0.900744 0.913386 -180 0 0 0.900744
								 0.913386 L1.93 80.24 a0.900744 0.913386 -180 0 0 0.931804 -0.913386 L2.86 70.79 L11.18 70.79 a0.900744
								 0.913386 -180 0 0 0.931804 -0.913386 L12.11 68.96 a0.900744 0.913386 -180 0 0 -0.931804 -0.944882
								 ZM51.9 68.02 L42.58 68.02 a0.931804 0.944882 -180 0 0 -0.931804 0.944882 L41.65 69.97 a0.931804
								 0.944882 -180 0 0 0.931804 0.818898 L50.94 70.79 L50.94 79.3 a0.900744 0.913386 -180 0 0 0.962864
								 0.944882 L52.93 80.24 a0.900744 0.913386 -180 0 0 0.931804 -0.913386 L53.86 69.88 A1.83255 1.85827
								 -180 0 0 51.9 68.02 ZM11.18 121.85 L2.86 121.85 L2.86 113.34 a0.900744 0.913386 -180 0 0 -0.931804
								 -0.913386 L0.9 112.43 a0.900744 0.913386 -180 0 0 -0.900744 0.913386 L0 122.79 A1.80149 1.82677
								 -180 0 0 1.8 124.65 L11.12 124.65 a0.900744 0.913386 -180 0 0 0.931804 -0.913386 L12.05 122.73 a0.931804
								 0.944882 -180 0 0 -0.869684 -0.88189 ZM52.8 112.43 L51.9 112.43 a0.900744 0.913386 -180 0 0 -0.900744
								 0.913386 L51 121.85 L42.58 121.85 a0.962864 0.976378 -180 0 0 -0.931804 0.944882 L41.65 123.8 a0.931804
								 0.944882 -180 0 0 0.931804 0.913386 L51.9 124.71 A1.83255 1.85827 -180 0 0 53.73 122.85 L53.73 113.41
								 a0.900744 0.913386 -180 0 0 -0.931804 -0.976378 Z" class="st5"/>
				</g>
				<g id="shape3192-15" transform="translate(8.19987,-9.82677)">
					<title>Sheet.3192</title>
					<path d="M18.85 120.18 C29.26 120.18 37.71 116.68 37.71 112.33 L37.71 116.96 C37.49 121.19 29.07 124.71 18.85
								 124.71 C8.63 124.71 0 121.19 0 116.87 L0 112.33 C0.03 116.68 8.48 120.18 18.85 120.18 Z"
							class="st2"/>
				</g>
				<g id="shape3193-17" transform="translate(8.23093,-27.4016)">
					<title>Sheet.3193</title>
					<path d="M18.82 120.24 C29.23 120.24 37.68 116.71 37.68 112.4 L37.68 117.09 C37.46 121.34 29.04 124.71 18.82
								 124.71 C8.6 124.71 0 121.19 0 116.84 L0 112.49 C0 116.81 8.45 120.24 18.82 120.24 Z" class="st6"/>
				</g>
			</g>
		</g>
	</g>
</svg>
